icon_installer/data/icons/scalable/actions/show-screen-privacy-symbolic.svg

<?xml version="1.0" encoding="UTF-8"?>
<svg height="16px" viewBox="0 0 16 16" width="16px" xmlns="http://www.w3.org/2000/svg">
    <g fill="#222222">
        <path d="m 4 1 c -1.660156 0 -3 1.339844 -3 3 v 6 c 0 1.660156 1.339844 3 3 3 h 8 c 1.660156 0 3 -1.339844 3 -3 v -6 c 0 -1.660156 -1.339844 -3 -3 -3 z m 0 2 h 0.261719 l -1.261719 1.261719 v -0.261719 c 0 -0.554688 0.445312 -1 1 -1 z m 2.738281 0 h 0.699219 l -4.4375 4.4375 v -0.699219 z m 2.824219 0 h 1.230469 l -7.585938 7.582031 c -0.121093 -0.164062 -0.207031 -0.359375 -0.207031 -0.582031 v -0.4375 z m 2.609375 0.035156 c 0.316406 0.054688 0.578125 0.246094 0.714844 0.523438 l -7.441407 7.441406 h -1.238281 z m 0.828125 1.121094 v 5.84375 c 0 0.554688 -0.445312 1 -1 1 h -5.84375 z m 0 0"/>
        <path d="m 8 14 c -5 0 -5 1 -5 1 c 0 1 1 1 1 1 h 8 c 1 0 1 -1 1 -1 s 0 -1 -5 -1 z m 0 0"/>
    </g>
</svg>

<svg xmlns="http://www.w3.org/2000/svg" width="16" height="16"><path fill="#222" d="M4 1C2.34 1 1 2.34 1 4v6c0 1.66 1.34 3 3 3h8c1.66 0 3-1.34 3-3V4c0-1.66-1.34-3-3-3zm0 2h.262L3 4.262V4c0-.555.445-1 1-1zm2.738 0h.7L3 7.438v-.7zm2.825 0h1.23l-7.586 7.582A.976.976 0 0 1 3 10v-.438zm2.609.035a.969.969 0 0 1 .715.524L5.445 11H4.207zM13 4.156V10c0 .555-.445 1-1 1H6.156zM8 14c-5 0-5 1-5 1 0 1 1 1 1 1h8c1 0 1-1 1-1s0-1-5-1zm0 0"/></svg>
